casedrop/img/footer/icons/rules.svg

<svg width="29" height="29" viewBox="0 0 29 29" fill="none" xmlns="http://www.w3.org/2000/svg">
<path d="M23.5625 27.1873H5.4375C5.4375 27.1873 3.625 27.1269 3.625 22.354H25.375C25.375 27.1269 23.5625 27.1873 23.5625 27.1873Z" fill="#2B59FF"/>
<path d="M4.83333 1.8125H24.1667V22.3542H4.83333V1.8125Z" fill="#002AC0"/>
<path d="M10.875 9.0625H20.5417V10.2708H10.875V9.0625ZM10.875 11.4792H20.5417V12.6875H10.875V11.4792ZM10.875 13.8958H20.5417V15.1042H10.875V13.8958ZM10.875 16.3125H20.5417V17.5208H10.875V16.3125ZM10.875 18.7292H20.5417V19.9375H10.875V18.7292Z" fill="#111730"/>
<path d="M8.45833 9.0625H9.66667V10.2708H8.45833V9.0625ZM8.45833 11.4792H9.66667V12.6875H8.45833V11.4792ZM8.45833 13.8958H9.66667V15.1042H8.45833V13.8958ZM8.45833 16.3125H9.66667V17.5208H8.45833V16.3125ZM8.45833 18.7292H9.66667V19.9375H8.45833V18.7292Z" fill="#111730"/>
</svg>

<svg width="29" height="29" fill="none" xmlns="http://www.w3.org/2000/svg"><path d="M23.563 27.187H5.438s-1.813-.06-1.813-4.833h21.75c0 4.773-1.813 4.833-1.813 4.833z" fill="#2B59FF"/><path d="M4.833 1.813h19.334v20.541H4.833V1.813z" fill="#002AC0"/><path d="M10.875 9.063h9.667v1.208h-9.667V9.062zm0 2.416h9.667v1.209h-9.667v-1.209zm0 2.417h9.667v1.208h-9.667v-1.208zm0 2.416h9.667v1.209h-9.667v-1.209zm0 2.417h9.667v1.209h-9.667v-1.209zM8.458 9.063h1.209v1.208H8.458V9.062zm0 2.416h1.209v1.209H8.458v-1.209zm0 2.417h1.209v1.208H8.458v-1.208zm0 2.416h1.209v1.209H8.458v-1.209zm0 2.417h1.209v1.209H8.458v-1.209z" fill="#111730"/></svg>
